X:605
T: Joe Mills'
S: "Passing Time" (Jim & Mary Coogan & friends)
N: Joe Mills: accordion player & composer from Ballinasloe,
N: member of Aughrim Slopes Ceili Band
L: 1/8
M: 2/4
R: polka
Q: 250
K: Edor
E/F/ | GE BE | GA B>A | FD AD | F/E/D/F/ AG/F/ |
GE BE | GB d>e | fd AF | GE E :|
E/F/ | GB BA/G/ | FA AE/F/ | GB BA/G/ | FE EE/F/ |
GB BA/G/ | FA d>e | fd AF | GE E :|
